X:1
T:Title
%%score 1 2 3 4
L:1/8
M:2/2
K:C
V:1 treble nm="Part_1"
V:2 treble-8 nm="Part_2"
V:3 treble-8 nm="Part_3"
V:4 bass nm="Part_4"
V:1
 D8- | D8 | E4 F4- | F2 E2 E4 | D6 C2 | C8 | z4 D4- | D4 F4- | F2 E2 E4 | F4 G4 | F6 D2 | %11
 E4 D2 E2 | F8 | D8 | C4 E4- | E2 D2 D4- | D4 ^C4 | D8 | z8 | D8 | E8 | F6 E2 | D4 C4- | C4 D4- | %24
 D4 F4 | E6 D2 | F2 G2 A4 | F4 c4- | c2 B2 d4 | c2 B2 A4- | A2 G2 G2 F2 | A8- | A8 | z8 | z8 | A8 | %36
 A8 | G8 | G8 | F4 D4 | E6 DE | F4 D4- | D2 C2 E4 | F4 G4- | G4 E4- | E2 D2 F4- | F2 E2 D4- | %47
 D2 ^C2 C2 B,2 | D8- | D8 | z8 | D4 E4 | F4 E2 C2 | D4 C4 | D4 F4- | F2 D2 E4 | D6 CB, | %57
 C4 (3:2:2E4 F2 | G4 F2 A2- | A2 G2 E4 | F6 E2 | E4 D4- | D2 C2 C2 B,2 | D8- | D8 |] %65
V:2
 D8- | D8 | G4 F4 | A8 | _B4 G2 F2 | A8 | F8 | D8 | d4 c4 | d4 e4 | d2 B2 A4- | A4 B4 | A4 F4- | %13
 F4 _B4 | A4 G4- | G2 F2 D4 | E8 | D8- | D8 | z4 G4- | G4 A4- | A4 D4 | F4 E4 | F8 | G2 F2 D4 | %25
 A2 B2 c2 Bc | d6 c2 | A2 c4 B2 | A4 G4 | c4 d4 | B8 | A8 | D4 F4 | E8 | D8 | z4 F4- | F4 D4 | %37
 E4 C4- | C4 c4 | d4 B4 | c4 A4- | A4 B4 | G8 | A4 G4 | E8 | A8 | F4 D4 | E8 | D8 | z8 | D4 E4 | %51
 F4 E2 C2 | D4 C4 | F6 E2 | F4 D4 | D2 d4 c2 | d4 B4 | A8 | G4 c4- | c2 B2 A4- | A4 D4 | G4 F4 | %62
 E8 | D8- | D8 |] %65
V:3
 A8- | A4 B4 | c4 A4- | A2 GE E4 | F4 D4 | E4 (3:2:2F4 G2 | A8 | z4 A4- | A2 B2 c2 A2 | B2 AB c4 | %10
 A8 | c4 B2 G2 | A2 d4 _B2- | B2 A2 F4 | E8 | z2 F4 G2 | A8 | F6 D2 | F2 G2 A4 | B6 A2 | B4 c4 | %21
 d6 cB | A4 z2 G2 | F2 A4 A2 | B2 c2 d4 | B4 A4- | A8 | A4 z4 | z8 | z4 A4 | B2 d4 e2 | c4 d2 f2- | %32
 fe d3 A d2- | d2 ^c2 c2 B2 | d3 c A4 | D8 | A4 d4 | B2 AB c4- | c2 B2 G4 | D4 F4 | G4 z2 A2 | F8 | %42
 B4 c4- | c2 B2 B4- | B4 c4- | c8 | A4 G4 | A8 | F6 D2 | F2 G2 A4 | d4 B2 c2 | A4 B2 c2 | A6 G2 | %53
 B3 A c4 | A4 z4 | A4 (3:2:2c4 B2 | A2 F2 G2 E2 | F4 c4 | B4 c2 G2- | G2 B2 c4 | d8 | c4 B2 A2 | %62
 A4 A4 | F6 G2 | A8 |] %65
V:4
 A,8 | F,6 D,2 | C,4 D,4- | D,4 C,4 | _B,,8 | A,,8 | D,8 | F,6 D,2 | D,4 A,4 | D,4 C,4 | D,8 | %11
 A,,4 z4 | D,8 | _B,,8 | C,2 A,,2 C,4- | C,2 D,2 _B,,4 | A,,8 | A,8- | A,4 F,2 E,2 | G,8 | z8 | %21
 D,4 A,4- | A,2 F,2 G,4 | A,8 | z8 | z8 | D,8 | F,4 C,4 | F,4 E,4 | F,4 D,4 | G,6 E,2 | F,4 D,4 | %32
 F,2 G,2 A,4- | A,4 G,4 | A,4 C4- | C2 B,2 A,4 | F,6 E,F, | G,4 E,4 | C,8 | z4 D,4 | C,8 | D,8 | %42
 E,4 C,4 | F,2 D,2 E,4- | E,4 C,4 | A,,8 | _B,,8 | A,,8 | A,8- | A,4 F,2 E,2 | F,4 G,2 F,G, | %51
 A,2 F,2 G,2 E,2 | A,4 F,2 G,2- | G,2 z2 A,4 | G,2 F,2 A,4 | A,2 F,2 A,4 | D,4 G,4 | %57
 A,2 F,3 G, A,2 | E,4 C,4 | A,,8 | D,4 B,,4 | C,4 D,4 | A,,8 | A,8- | A,8 |] %65

